libs/ui/packages/crypto-icons/src/svg/IOP.svg

<svg width="24" height="24" viewBox="0 0 24 24" fill="none">
<path d="M6.31014 7.46882C6.28539 7.45382 6.26514 7.46582 6.26514 7.49507V9.22157C6.26594 9.2373 6.27043 9.25263 6.27825 9.26631C6.28606 9.27999 6.29699 9.29164 6.31014 9.30032L8.49264 10.5618C8.50579 10.5705 8.51671 10.5821 8.52453 10.5958C8.53234 10.6095 8.53683 10.6248 8.53764 10.6406V16.8881C8.53867 16.9039 8.54341 16.9193 8.55149 16.933C8.55957 16.9467 8.57075 16.9583 8.58414 16.9668L10.0789 17.8293C10.1036 17.8443 10.1239 17.8323 10.1239 17.8031V9.72557C10.1232 9.7097 10.1188 9.69423 10.1109 9.68041C10.1031 9.66659 10.0921 9.65482 10.0789 9.64607L6.31014 7.46882ZM17.6906 7.46882C17.7154 7.45382 17.7356 7.46582 17.7356 7.49507V9.22157C17.7348 9.2373 17.7303 9.25263 17.7225 9.26631C17.7147 9.27999 17.7038 9.29164 17.6906 9.30032L15.5081 10.5603C15.4949 10.5691 15.4839 10.5808 15.4761 10.5947C15.4683 10.6085 15.4638 10.624 15.4631 10.6398V16.8873C15.4623 16.9032 15.4577 16.9187 15.4498 16.9325C15.4418 16.9464 15.4307 16.9581 15.4174 16.9668L13.9226 17.8293C13.8971 17.8443 13.8769 17.8323 13.8769 17.8031V9.72557C13.8776 9.70972 13.8821 9.69426 13.8899 9.68045C13.8977 9.66665 13.9087 9.65487 13.9219 9.64607L17.6906 7.46882Z" fill="#0CAFA5"/>
<path d="M17.9854 4.1568C17.9854 4.1283 17.9651 4.1163 17.9404 4.13055L12.0454 7.54005C12.0314 7.54704 12.016 7.55069 12.0004 7.55069C11.9848 7.55069 11.9694 7.54704 11.9554 7.54005L6.0604 4.13055C6.0349 4.11555 6.01465 4.1283 6.01465 4.1568V5.8833C6.01545 5.89903 6.01994 5.91436 6.02776 5.92804C6.03558 5.94172 6.0465 5.95337 6.05965 5.96205L11.1626 8.91255C11.1758 8.92127 11.1866 8.93293 11.1945 8.9466C11.2023 8.96027 11.2068 8.97558 11.2076 8.9913V19.705C11.2084 19.721 11.213 19.7365 11.2209 19.7503C11.2289 19.7641 11.24 19.7759 11.2534 19.7845L11.9546 20.1895C11.9689 20.1966 11.9845 20.2002 12.0004 20.2002C12.0163 20.2002 12.0319 20.1966 12.0461 20.1895L12.7474 19.7845C12.7606 19.7758 12.7716 19.764 12.7795 19.7502C12.7873 19.7364 12.7917 19.7209 12.7924 19.705V8.99205C12.7933 8.97626 12.798 8.96091 12.8059 8.94724C12.8139 8.93356 12.8249 8.92194 12.8381 8.9133L17.9404 5.96205C17.9536 5.95329 17.9646 5.94153 17.9725 5.92771C17.9803 5.91389 17.9847 5.89841 17.9854 5.88255V4.15755V4.1568ZM12.0274 8.5188C12.0214 8.5188 12.0191 8.5143 12.0221 8.50905C12.0251 8.5038 12.0296 8.5038 12.0326 8.50905C12.0356 8.5143 12.0326 8.5188 12.0274 8.5188Z" fill="#0CAFA5"/>
<path d="M11.2595 3.93106C11.245 3.93425 11.2321 3.94219 11.2227 3.95362C11.2133 3.96504 11.208 3.97928 11.2077 3.99406V6.14881C11.2086 6.1646 11.2133 6.17995 11.2212 6.19362C11.2292 6.2073 11.2402 6.21892 11.2535 6.22756L11.9547 6.63256C11.9832 6.64756 12.017 6.64756 12.0462 6.63256L12.7475 6.22756C12.7606 6.21884 12.7715 6.20718 12.7793 6.19351C12.7871 6.17984 12.7916 6.16454 12.7925 6.14881V3.99331C12.7923 3.9786 12.7872 3.96437 12.7779 3.95293C12.7687 3.9415 12.7558 3.93353 12.7415 3.93031L12.0515 3.80356C12.0174 3.79839 11.9828 3.79839 11.9487 3.80356L11.2595 3.93106Z" fill="#0CAFA5"/>
</svg>

<svg width="24" height="24" viewBox="0 0 24 24" fill="none"><path fill="#0cafa5" d="M6.31 7.469c-.025-.015-.045-.003-.045.026v1.727a.1.1 0 0 0 .045.078l2.183 1.262a.1.1 0 0 1 .045.079v6.247a.1.1 0 0 0 .046.079l1.495.862c.025.015.045.003.045-.026V9.726a.1.1 0 0 0-.045-.08zm11.38 0c.025-.015.046-.003.046.026v1.727a.1.1 0 0 1-.045.078l-2.183 1.26a.1.1 0 0 0-.045.08v6.247a.1.1 0 0 1-.046.08l-1.494.862c-.026.015-.046.003-.046-.026V9.726a.1.1 0 0 1 .045-.08z"/><path fill="#0cafa5" d="M17.985 4.157c0-.029-.02-.04-.045-.026L12.045 7.54a.1.1 0 0 1-.09 0L6.06 4.13c-.025-.014-.045-.002-.045.027v1.726a.1.1 0 0 0 .045.079l5.103 2.95a.1.1 0 0 1 .045.08v10.713a.1.1 0 0 0 .045.08l.702.404a.1.1 0 0 0 .091 0l.701-.404a.1.1 0 0 0 .045-.08V8.992a.1.1 0 0 1 .046-.079l5.102-2.951a.1.1 0 0 0 .045-.08zm-5.958 4.362q-.01-.001-.005-.01.006-.008.01 0t-.005.01"/><path fill="#0cafa5" d="M11.26 3.931a.066.066 0 0 0-.052.063V6.15a.1.1 0 0 0 .046.079l.7.405a.1.1 0 0 0 .092 0l.702-.405a.1.1 0 0 0 .045-.08V3.994a.065.065 0 0 0-.051-.063l-.69-.126a.3.3 0 0 0-.103 0z"/></svg>
